public/assets/zapier.svg

<svg width="142" height="50" viewBox="0 0 142 50" fill="none" xmlns="http://www.w3.org/2000/svg">
<rect x="0.5" y="0.5" width="141" height="49" rx="6.5" fill="white" stroke="url(#paint0_linear_2329_170)"/>
<rect x="13" y="5" width="40" height="40" rx="8" fill="white"/>
<g clip-path="url(#clip0_2329_170)">
<path d="M36.1101 25.0046C36.1106 25.902 35.9487 26.7921 35.6323 27.6319C34.7922 27.9483 33.9019 28.1104 33.0042 28.1105H32.9937C32.0693 28.1094 31.1836 27.9404 30.3664 27.6323C30.0498 26.7924 29.8877 25.9022 29.888 25.0046V24.9937C29.8876 24.0964 30.0493 23.2065 30.3654 22.3667C31.2054 22.0498 32.0959 21.8876 32.9938 21.888H33.0043C33.902 21.8876 34.7924 22.0497 35.6324 22.3666C35.9488 23.2063 36.1107 24.0963 36.1102 24.9936V25.0045L36.1101 25.0046ZM45.2707 22.9251H38.0067L43.1428 17.7885C42.7397 17.2222 42.29 16.6906 41.7984 16.1991V16.1987C41.3068 15.7077 40.7753 15.2584 40.2093 14.8555L35.0728 19.992V12.7279C34.3896 12.613 33.6981 12.5551 33.0054 12.5547L32.9925 12.5547C32.2879 12.5551 31.5977 12.615 30.9251 12.7279V19.992L25.7885 14.8555C25.2225 15.2583 24.6912 15.7079 24.2002 16.1995L24.1975 16.2015C23.7068 16.6924 23.2577 17.2232 22.855 17.7885L27.9919 22.9251H20.7279C20.7279 22.9251 20.5547 24.2894 20.5547 24.9949V25.0034C20.5547 25.7089 20.6145 26.4002 20.7279 27.0732H27.992L22.8551 32.2097C23.6631 33.3437 24.6545 34.3351 25.7885 35.1432L30.9251 30.0063V37.2707C31.6075 37.3851 32.2982 37.4429 32.9901 37.4436H33.0077C33.6996 37.443 34.3903 37.3851 35.0727 37.2707V30.0063L40.2097 35.1432C40.7756 34.7401 41.307 34.2907 41.7984 33.7996L41.7996 33.7984C42.2905 33.3069 42.7398 32.7755 43.1428 32.2097L38.0059 27.0732H45.2707C45.3838 26.4014 45.4428 25.7121 45.4436 25.0082V24.9901C45.4428 24.2862 45.3838 23.5969 45.2707 22.9251Z" fill="#FF4A00"/>
</g>
<path d="M57.7 30V29.776L63.027 21.103H57.91V19.92H65.127V20.158L59.828 28.817H65.057V30H57.7ZM68.961 30.21C68.3964 30.21 67.9227 30.1073 67.54 29.902C67.162 29.692 66.875 29.4167 66.679 29.076C66.4877 28.7353 66.392 28.362 66.392 27.956C66.392 27.5593 66.4667 27.2163 66.616 26.927C66.77 26.633 66.9847 26.3903 67.26 26.199C67.5354 26.003 67.8644 25.849 68.247 25.737C68.6064 25.639 69.0077 25.555 69.451 25.485C69.899 25.4103 70.3517 25.3427 70.809 25.282C71.2664 25.2213 71.6934 25.163 72.09 25.107L71.642 25.366C71.656 24.694 71.5207 24.197 71.236 23.875C70.956 23.553 70.4707 23.392 69.78 23.392C69.3227 23.392 68.9214 23.497 68.576 23.707C68.2354 23.9123 67.995 24.2483 67.855 24.715L66.672 24.358C66.854 23.6953 67.2064 23.175 67.729 22.797C68.2517 22.419 68.94 22.23 69.794 22.23C70.48 22.23 71.068 22.3537 71.558 22.601C72.0527 22.8437 72.4074 23.2123 72.622 23.707C72.7294 23.9403 72.797 24.1947 72.825 24.47C72.853 24.7407 72.867 25.0253 72.867 25.324V30H71.761V28.187L72.02 28.355C71.7354 28.9663 71.3364 29.4283 70.823 29.741C70.3144 30.0537 69.6937 30.21 68.961 30.21ZM69.15 29.167C69.598 29.167 69.9854 29.0877 70.312 28.929C70.6434 28.7657 70.9094 28.5533 71.11 28.292C71.3107 28.026 71.4414 27.7367 71.502 27.424C71.572 27.1907 71.6094 26.9317 71.614 26.647C71.6234 26.3577 71.628 26.136 71.628 25.982L72.062 26.171C71.656 26.227 71.257 26.2807 70.865 26.332C70.473 26.3833 70.102 26.4393 69.752 26.5C69.402 26.556 69.087 26.6237 68.807 26.703C68.6017 26.7683 68.408 26.8523 68.226 26.955C68.0487 27.0577 67.904 27.1907 67.792 27.354C67.6847 27.5127 67.631 27.711 67.631 27.949C67.631 28.1543 67.6824 28.3503 67.785 28.537C67.8924 28.7237 68.0557 28.8753 68.275 28.992C68.499 29.1087 68.7907 29.167 69.15 29.167ZM78.159 30.21C77.4497 30.21 76.8524 30.035 76.367 29.685C75.8817 29.3303 75.513 28.852 75.261 28.25C75.0137 27.6433 74.89 26.9643 74.89 26.213C74.89 25.4523 75.0137 24.771 75.261 24.169C75.513 23.567 75.8817 23.0933 76.367 22.748C76.857 22.4027 77.4567 22.23 78.166 22.23C78.866 22.23 79.468 22.405 79.972 22.755C80.4807 23.1003 80.8704 23.574 81.141 24.176C81.4117 24.778 81.547 25.457 81.547 26.213C81.547 26.969 81.4117 27.648 81.141 28.25C80.8704 28.852 80.4807 29.3303 79.972 29.685C79.468 30.035 78.8637 30.21 78.159 30.21ZM74.68 33.36V22.44H75.793V28.005H75.933V33.36H74.68ZM78.005 29.069C78.5044 29.069 78.9174 28.943 79.244 28.691C79.5707 28.439 79.8157 28.0983 79.979 27.669C80.1424 27.235 80.224 26.7497 80.224 26.213C80.224 25.681 80.1424 25.2003 79.979 24.771C79.8204 24.3417 79.573 24.001 79.237 23.749C78.9057 23.497 78.4834 23.371 77.97 23.371C77.48 23.371 77.074 23.4923 76.752 23.735C76.43 23.973 76.1897 24.3067 76.031 24.736C75.8724 25.1607 75.793 25.653 75.793 26.213C75.793 26.7637 75.87 27.256 76.024 27.69C76.1827 28.1193 76.4254 28.4577 76.752 28.705C77.0787 28.9477 77.4964 29.069 78.005 29.069ZM83.2216 21.103V19.815H84.4676V21.103H83.2216ZM83.2216 30V22.44H84.4676V30H83.2216ZM89.8439 30.21C89.1019 30.21 88.4532 30.0467 87.8979 29.72C87.3472 29.3887 86.9179 28.929 86.6099 28.341C86.3019 27.7483 86.1479 27.0577 86.1479 26.269C86.1479 25.443 86.2996 24.729 86.6029 24.127C86.9062 23.5203 87.3286 23.0537 87.8699 22.727C88.4159 22.3957 89.0552 22.23 89.7879 22.23C90.5486 22.23 91.1949 22.405 91.7269 22.755C92.2636 23.105 92.6649 23.6043 92.9309 24.253C93.2016 24.9017 93.3182 25.674 93.2809 26.57H92.0209V26.122C92.0069 25.1933 91.8179 24.5003 91.4539 24.043C91.0899 23.581 90.5486 23.35 89.8299 23.35C89.0599 23.35 88.4742 23.5973 88.0729 24.092C87.6716 24.5867 87.4709 25.296 87.4709 26.22C87.4709 27.1113 87.6716 27.802 88.0729 28.292C88.4742 28.782 89.0459 29.027 89.7879 29.027C90.2872 29.027 90.7212 28.9127 91.0899 28.684C91.4586 28.4553 91.7479 28.1263 91.9579 27.697L93.1549 28.11C92.8609 28.7773 92.4176 29.2953 91.8249 29.664C91.2369 30.028 90.5766 30.21 89.8439 30.21ZM87.0509 26.57V25.569H92.6369V26.57H87.0509ZM94.8394 30V22.44H95.9524V24.267L95.7704 24.029C95.859 23.7957 95.9734 23.581 96.1134 23.385C96.258 23.189 96.419 23.028 96.5964 22.902C96.7924 22.7433 97.014 22.622 97.2614 22.538C97.5087 22.454 97.7607 22.405 98.0174 22.391C98.274 22.3723 98.5144 22.3887 98.7384 22.44V23.609C98.477 23.539 98.19 23.5203 97.8774 23.553C97.5647 23.5857 97.2754 23.7 97.0094 23.896C96.7667 24.0687 96.5777 24.2787 96.4424 24.526C96.3117 24.7733 96.2207 25.0417 96.1694 25.331C96.118 25.6157 96.0924 25.9073 96.0924 26.206V30H94.8394Z" fill="#475367"/>
<defs>
<linearGradient id="paint0_linear_2329_170" x1="71" y1="1" x2="71" y2="49" gradientUnits="userSpaceOnUse">
<stop stop-color="#E4E7EC"/>
<stop offset="1" stop-color="white"/>
</linearGradient>
<clipPath id="clip0_2329_170">
<rect x="20.5547" y="12.5547" width="24.8889" height="24.8889" rx="8" fill="white"/>
</clipPath>
</defs>
</svg>

<svg xmlns="http://www.w3.org/2000/svg" width="142" height="50" fill="none" xmlns:v="https://vecta.io/nano"><g fill="#fff"><rect x=".5" y=".5" width="141" height="49" rx="6.5" stroke="url(#A)"/><rect x="13" y="5" width="40" height="40" rx="8"/></g><g clip-path="url(#B)"><path d="M36.11 25.005a7.44 7.44 0 0 1-.478 2.627 7.46 7.46 0 0 1-2.628.479h-.011a7.46 7.46 0 0 1-2.627-.478c-.317-.84-.479-1.73-.478-2.628v-.011a7.45 7.45 0 0 1 .477-2.627c.84-.317 1.73-.479 2.628-.479h.011c.898 0 1.788.162 2.628.479a7.44 7.44 0 0 1 .478 2.627v.011h0zm9.161-2.079h-7.264l5.136-5.137a12.49 12.49 0 0 0-1.344-1.589h0c-.492-.491-1.023-.94-1.589-1.343l-5.136 5.137v-7.264a12.51 12.51 0 0 0-2.067-.173h-.013a12.52 12.52 0 0 0-2.067.173v7.264l-5.137-5.137c-.566.403-1.097.852-1.588 1.344l-.003.002a12.52 12.52 0 0 0-1.343 1.587l5.137 5.137h-7.264l-.173 2.07v.008a12.45 12.45 0 0 0 .173 2.07h7.264l-5.137 5.136a12.53 12.53 0 0 0 2.933 2.934l5.137-5.137v7.264c.682.114 1.373.172 2.065.173h.018c.692-.001 1.383-.059 2.065-.173v-7.264l5.137 5.137c.566-.403 1.097-.852 1.589-1.344l.001-.001c.491-.492.94-1.023 1.343-1.589l-5.137-5.136h7.265a12.51 12.51 0 0 0 .173-2.065v-.018a12.51 12.51 0 0 0-.173-2.065z" fill="#ff4a00"/></g><path d="M57.7 30v-.224l5.327-8.673H57.91V19.92h7.217v.238l-5.299 8.659h5.229V30H57.7zm11.261.21c-.565 0-1.038-.103-1.421-.308s-.665-.485-.861-.826a2.25 2.25 0 0 1-.287-1.12c0-.397.075-.74.224-1.029a2.01 2.01 0 0 1 .644-.728c.275-.196.604-.35.987-.462.359-.098.761-.182 1.204-.252l1.358-.203 1.281-.175-.448.259c.014-.672-.121-1.169-.406-1.491s-.765-.483-1.456-.483c-.457 0-.859.105-1.204.315s-.581.541-.721 1.008l-1.183-.357c.182-.663.534-1.183 1.057-1.561s1.211-.567 2.065-.567c.686 0 1.274.124 1.764.371s.849.611 1.064 1.106a2.39 2.39 0 0 1 .203.763c.028.271.042.555.042.854V30h-1.106v-1.813l.259.168c-.285.611-.684 1.073-1.197 1.386s-1.129.469-1.862.469zm.189-1.043c.448 0 .835-.079 1.162-.238s.597-.376.798-.637.331-.555.392-.868a2.86 2.86 0 0 0 .112-.777l.014-.665.434.189-1.197.161-1.113.168c-.35.056-.665.124-.945.203-.205.065-.399.149-.581.252a1.32 1.32 0 0 0-.434.399c-.107.159-.161.357-.161.595 0 .205.051.401.154.588s.271.338.49.455.516.175.875.175zm9.009 1.043c-.709 0-1.307-.175-1.792-.525a3.32 3.32 0 0 1-1.106-1.435c-.247-.607-.371-1.286-.371-2.037 0-.761.124-1.442.371-2.044s.621-1.076 1.106-1.421 1.09-.518 1.799-.518c.7 0 1.302.175 1.806.525s.898.819 1.169 1.421.406 1.281.406 2.037-.135 1.435-.406 2.037-.66 1.08-1.169 1.435-1.108.525-1.813.525zm-3.479 3.15V22.44h1.113v5.565h.14v5.355H74.68zm3.325-4.291c.499 0 .912-.126 1.239-.378s.572-.593.735-1.022.245-.919.245-1.456-.082-1.013-.245-1.442-.406-.77-.742-1.022-.754-.378-1.267-.378c-.49 0-.896.121-1.218.364s-.562.572-.721 1.001-.238.917-.238 1.477a4.4 4.4 0 0 0 .231 1.477c.159.429.401.768.728 1.015s.744.364 1.253.364zm5.217-7.966v-1.288h1.246v1.288h-1.246zm0 8.897v-7.56h1.246V30h-1.246zm6.622.21c-.742 0-1.391-.163-1.946-.49a3.43 3.43 0 0 1-1.288-1.379c-.308-.593-.462-1.283-.462-2.072 0-.826.152-1.54.455-2.142s.726-1.073 1.267-1.4 1.185-.497 1.918-.497c.761 0 1.407.175 1.939.525s.938.849 1.204 1.498.387 1.421.35 2.317h-1.26v-.448c-.014-.929-.203-1.622-.567-2.079s-.905-.693-1.624-.693c-.77 0-1.356.247-1.757.742s-.602 1.204-.602 2.128c0 .891.201 1.582.602 2.072s.973.735 1.715.735c.499 0 .933-.114 1.302-.343s.658-.558.868-.987l1.197.413a3.39 3.39 0 0 1-1.33 1.554c-.588.364-1.248.546-1.981.546zm-2.793-3.64v-1.001h5.586v1.001h-5.586zM94.839 30v-7.56h1.113v1.827l-.182-.238c.089-.233.203-.448.343-.644a2.15 2.15 0 0 1 .483-.483 2.14 2.14 0 0 1 .665-.364c.247-.084.499-.133.756-.147s.497-.002.721.049v1.169c-.261-.07-.548-.089-.861-.056a1.75 1.75 0 0 0-.868.343 1.87 1.87 0 0 0-.567.63 2.73 2.73 0 0 0-.273.805c-.051.285-.077.576-.077.875V30h-1.253z" fill="#475367"/><defs><linearGradient id="A" x1="71" y1="1" x2="71" y2="49" gradientUnits="userSpaceOnUse"><stop stop-color="#e4e7ec"/><stop offset="1" stop-color="#fff"/></linearGradient><clipPath id="B"><rect x="20.555" y="12.555" width="24.889" height="24.889" rx="8" fill="#fff"/></clipPath></defs></svg>
